components/Company/logos/logo-tuenti.svg

<svg height="140" viewBox="0 0 400 140" width="400" xmlns="http://www.w3.org/2000/svg"><g fill="#1e1e1e" transform="translate(26 35)"><path d="m50.6074237 41.4990542c-.8785782 4.1046659-2.5058194 7.9401009-4.8553004 11.3628626-.6958163 1.0261664-1.8188109 1.5800756-2.9748348 1.5800756-.6870085 0-1.3982385-.2074401-2.0169865-.6377679-1.6558666-1.1144389-2.0676313-3.3433166-.9402328-4.9984237 1.8011953-2.6437579 3.058509-5.6185372 3.7543253-8.8051703.7574709-3.5331021.7574709-7.2515763 0-10.7692308-.6936144-3.186633-1.95313-6.1614123-3.7543253-8.8250315-1.1273985-1.6374527-.7156338-3.870744.9622523-4.9962169 1.6316452-1.1144388 3.8666247-.6929382 4.9720038.9599622 2.3494809 3.4249685 3.9767222 7.231715 4.8553004 11.3628625.9710601 4.4886507.9710601 9.2686003 0 13.7704918zm-19.4960679-14.1986128c-.8719723.8650693-2.0808431 1.3616015-3.3337528 1.3616015-1.237496 0-2.4551746-.4965322-3.3293488-1.3616015-.8741743-.8805171-1.3872287-2.1052964-1.3872287-3.3455234s.5130544-2.4363177 1.3872287-3.3212484c1.7483485-1.7698613 4.9279647-1.7698613 6.6631016 0 .8741742.8849307 1.3806228 2.0810214 1.3806228 3.3212484 0 1.2424338-.5042466 2.4650063-1.3806228 3.3455234zm.1034916 14.8584489-4.8817238 10.0189155c-.62095 1.3064313-1.9377162 2.0545397-3.276502 2.0545397-.5350739 0-1.0833596-.1368222-1.6008179-.3597099-1.8122051-.8849307-2.567474-3.0851198-1.6778861-4.8770492l4.8619062-10.0476041c.8939919-1.8250315 3.0805285-2.5775535 4.8817239-1.6771752 1.8232148.880517 2.5784838 3.0608449 1.6932997 4.8858764zm23.6973892-42.1588903h-39.8244732c-8.33217988 0-15.0877634 6.75504414-15.0877634 15.0879571v39.8240858c0 8.332913 6.75558352 15.0879571 15.0877634 15.0879571h39.8244732c8.3321799 0 15.0877634-6.7550441 15.0877634-15.0879571v-39.8240858c0-8.33291296-6.7555835-15.0879571-15.0877634-15.0879571z"/><path d="m97.1059495 51.0549378v-25.2626382h15.1081905v-12.5264904h-15.1081905v-13.2658092l-15.1059495 1.47422402v49.37105618c0 19.367949 19.28586 21.1577629 33 17.7899997l-3.213936-11.0522663c-6.963529 1.3682917-14.6778733.8408373-14.6778733-6.5280758z"/><path d="m155.417938 53.5833528c-18.750545 5.7154414-20.835876 1.1435239-20.835876-9.5576819v-30.0256709h-14.582062v33.1425904c0 15.0618437 6.981609 22.8574096 19.062146 22.8574096 2.501525 0 7.709405-1.1435239 20.103722-5.4039673l1.876144 4.05352h8.957988v-54.6473746h-14.582062v39.5833528z"/><path d="m310.105949 51.0549378v-25.2626382h15.108191v-12.5264904h-15.108191v-13.2658092l-15.105949 1.47422402v49.37105618c0 19.367949 19.28586 21.1577629 33 17.7899997l-3.213936-11.0522663c-6.963529 1.3682917-14.677873.8408373-14.677873-6.5280758z"/><path d="m334 68h14v-54h-14z"/><path d="m268.951143 13.0021781c-2.483974 0-7.763773 1.143524-20.18581 5.4017892l-1.864605-4.0513419h-8.900728v54.6473746h14.492377v-39.5833528c18.843122-5.8178141 21.015246-1.1435239 21.015246 9.5576819v30.0256709h14.492377v-33.1447686c0-15.0618436-6.936504-22.8552314-19.048857-22.8552314z"/><path d="m202.894925 25.8283616c6.070293-.312305 10.463758 2.3791569 12.661585 7.757743l-25.951435 6.4130964c.523188-7.9637775 6.068105-13.7587703 13.28985-14.1708394zm2.092751 31.8616163c-5.336954-.3101362-10.150721-1.6569515-12.766661-6.4152652l37.778985-9.2064911c-.420302-15.9318926-8.476082-29.0682216-26.476812-29.0682216-14.964488 0-27.523188 11.6897496-27.523188 28.862187 0 16.3439617 11.092022 28.137813 29.405789 28.137813 8.791308 0 15.174639-1.964919 19.465218-3.6218705l-3.454354-10.9653755c-5.021728 1.7567156-10.88406 2.4810897-16.428977 2.2750551z"/></g></svg>

<?xml version="1.0" encoding="UTF-8"?>
<svg width="400px" height="140px" viewBox="0 0 400 140" version="1.1" xmlns="http://www.w3.org/2000/svg" xmlns:xlink="http://www.w3.org/1999/xlink">
    <title>Artboard</title>
    <g id="Artboard" stroke="none" stroke-width="1" fill="none" fill-rule="evenodd">
        <g id="logo_tuenti" transform="translate(26.000000, 35.000000)" fill="#1E1E1E" fill-rule="nonzero">
            <path d="M50.6074237,41.4990542 C49.7288455,45.6037201 48.1016043,49.4391551 45.7521233,52.8619168 C45.056307,53.8880832 43.9333124,54.4419924 42.7772885,54.4419924 C42.09028,54.4419924 41.37905,54.2345523 40.760302,53.8042245 C39.1044354,52.6897856 38.6926707,50.4609079 39.8200692,48.8058008 C41.6212645,46.1620429 42.8785782,43.1872636 43.5743945,40.0006305 C44.3318654,36.4675284 44.3318654,32.7490542 43.5743945,29.2313997 C42.8807801,26.0447667 41.6212645,23.0699874 39.8200692,20.4063682 C38.6926707,18.7689155 39.1044354,16.5356242 40.7823215,15.4101513 C42.4139667,14.2957125 44.6489462,14.7172131 45.7543253,16.3701135 C48.1038062,19.795082 49.7310475,23.6018285 50.6096257,27.732976 C51.5806858,32.2216267 51.5806858,37.0015763 50.6096257,41.5034678 L50.6074237,41.4990542 Z M31.1113558,27.3004414 C30.2393835,28.1655107 29.0305127,28.6620429 27.777603,28.6620429 C26.540107,28.6620429 25.3224284,28.1655107 24.4482542,27.3004414 C23.5740799,26.4199243 23.0610255,25.195145 23.0610255,23.954918 C23.0610255,22.714691 23.5740799,21.5186003 24.4482542,20.6336696 C26.1966027,18.8638083 29.3762189,18.8638083 31.1113558,20.6336696 C31.98553,21.5186003 32.4919786,22.714691 32.4919786,23.954918 C32.4919786,25.1973518 31.987732,26.4199243 31.1113558,27.3004414 L31.1113558,27.3004414 Z M31.2148474,42.1588903 L26.3331236,52.1778058 C25.7121736,53.4842371 24.3954074,54.2323455 23.0566216,54.2323455 C22.5215477,54.2323455 21.973262,54.0955233 21.4558037,53.8726356 C19.6435986,52.9877049 18.8883297,50.7875158 19.7779176,48.9955864 L24.6398238,38.9479823 C25.5338157,37.1229508 27.7203523,36.3704288 29.5215477,37.2708071 C31.3447625,38.1513241 32.1000315,40.331652 31.2148474,42.1566835 L31.2148474,42.1588903 Z M54.9122366,0 L15.0877634,0 C6.75558352,0 0,6.75504414 0,15.0879571 L0,54.9120429 C0,63.2449559 6.75558352,70 15.0877634,70 L54.9122366,70 C63.2444165,70 70,63.2449559 70,54.9120429 L70,15.0879571 C70,6.75504414 63.2444165,0 54.9122366,0 Z" id="Shape"></path>
            <path d="M97.1059495,51.0549378 L97.1059495,25.7922996 L112.21414,25.7922996 L112.21414,13.2658092 L97.1059495,13.2658092 L97.1059495,0 L82,1.47422402 L82,50.8452802 C82,70.2132292 101.28586,72.0030431 115,68.6352799 L111.786064,57.5830136 C104.822535,58.9513053 97.1081907,58.4238509 97.1081907,51.0549378 L97.1059495,51.0549378 Z" id="Path"></path>
            <path d="M155.417938,53.5833528 C136.667393,59.2987942 134.582062,54.7268767 134.582062,44.0256709 L134.582062,14 L120,14 L120,47.1425904 C120,62.2044341 126.981609,70 139.062146,70 C141.563671,70 146.771551,68.8564761 159.165868,64.5960327 L161.042012,68.6495527 L170,68.6495527 L170,14.0021781 L155.417938,14.0021781 L155.417938,53.5855309 L155.417938,53.5833528 Z" id="Path"></path>
            <path d="M310.105949,51.0549378 L310.105949,25.7922996 L325.21414,25.7922996 L325.21414,13.2658092 L310.105949,13.2658092 L310.105949,0 L295,1.47422402 L295,50.8452802 C295,70.2132292 314.28586,72.0030431 328,68.6352799 L324.786064,57.5830136 C317.822535,58.9513053 310.108191,58.4238509 310.108191,51.0549378 L310.105949,51.0549378 Z" id="Path"></path>
            <polygon id="Path" points="334 68 348 68 348 14 334 14"></polygon>
            <path d="M268.951143,13.0021781 C266.467169,13.0021781 261.18737,14.1457021 248.765333,18.4039673 L246.900728,14.3526254 L238,14.3526254 L238,69 L252.492377,69 L252.492377,29.4166472 C271.335499,23.5988331 273.507623,28.2731233 273.507623,38.9743291 L273.507623,69 L288,69 L288,35.8552314 C288,20.7933878 281.063496,13 268.951143,13 L268.951143,13.0021781 Z" id="Path"></path>
            <path d="M202.894925,25.8283616 C208.965218,25.5160566 213.358683,28.2075185 215.55651,33.5861046 L189.605075,39.999201 C190.128263,32.0354235 195.67318,26.2404307 202.894925,25.8283616 Z M204.987676,57.6899779 C199.650722,57.3798417 194.836955,56.0330264 192.221015,51.2747127 L230,42.0682216 C229.579698,26.136329 221.523918,13 203.523188,13 C188.5587,13 176,24.6897496 176,41.862187 C176,58.2061487 187.092022,70 205.405789,70 C214.197097,70 220.580428,68.035081 224.871007,66.3781295 L221.416653,55.412754 C216.394925,57.1694696 210.532593,57.8938437 204.987676,57.6878091 L204.987676,57.6899779 Z" id="Shape"></path>
        </g>
    </g>
</svg>
